app/images/social/inst.svg

<svg width="44" height="44" viewBox="0 0 44 44" fill="none" xmlns="http://www.w3.org/2000/svg">
<path fill-rule="evenodd" clip-rule="evenodd" d="M12.93 0.132C15.276 0.024 16.024 0 22 0C27.976 0 28.724 0.026 31.068 0.132C33.412 0.238 35.012 0.612 36.412 1.154C37.878 1.708 39.208 2.574 40.308 3.694C41.428 4.792 42.292 6.12 42.844 7.588C43.388 8.988 43.76 10.588 43.868 12.928C43.976 15.278 44 16.026 44 22C44 27.976 43.974 28.724 43.868 31.07C43.762 33.41 43.388 35.01 42.844 36.41C42.292 37.8782 41.4266 39.2084 40.308 40.308C39.208 41.428 37.878 42.292 36.412 42.844C35.012 43.388 33.412 43.76 31.072 43.868C28.724 43.976 27.976 44 22 44C16.024 44 15.276 43.974 12.93 43.868C10.59 43.762 8.99 43.388 7.59 42.844C6.12184 42.2919 4.79164 41.4265 3.692 40.308C2.57276 39.2093 1.70663 37.8798 1.154 36.412C0.612 35.012 0.24 33.412 0.132 31.072C0.024 28.722 0 27.974 0 22C0 16.024 0.026 15.276 0.132 12.932C0.238 10.588 0.612 8.988 1.154 7.588C1.70745 6.12016 2.57424 4.79063 3.694 3.692C4.79208 2.573 6.12094 1.70689 7.588 1.154C8.988 0.612 10.588 0.24 12.928 0.132H12.93ZM30.89 4.092C28.57 3.986 27.874 3.964 22 3.964C16.126 3.964 15.43 3.986 13.11 4.092C10.964 4.19 9.8 4.548 9.024 4.85C7.998 5.25 7.264 5.724 6.494 6.494C5.76409 7.2041 5.20236 8.06856 4.85 9.024C4.548 9.8 4.19 10.964 4.092 13.11C3.986 15.43 3.964 16.126 3.964 22C3.964 27.874 3.986 28.57 4.092 30.89C4.19 33.036 4.548 34.2 4.85 34.976C5.202 35.93 5.764 36.796 6.494 37.506C7.204 38.236 8.07 38.798 9.024 39.15C9.8 39.452 10.964 39.81 13.11 39.908C15.43 40.014 16.124 40.036 22 40.036C27.876 40.036 28.57 40.014 30.89 39.908C33.036 39.81 34.2 39.452 34.976 39.15C36.002 38.75 36.736 38.276 37.506 37.506C38.236 36.796 38.798 35.93 39.15 34.976C39.452 34.2 39.81 33.036 39.908 30.89C40.014 28.57 40.036 27.874 40.036 22C40.036 16.126 40.014 15.43 39.908 13.11C39.81 10.964 39.452 9.8 39.15 9.024C38.75 7.998 38.276 7.264 37.506 6.494C36.7959 5.76414 35.9314 5.20242 34.976 4.85C34.2 4.548 33.036 4.19 30.89 4.092V4.092ZM19.19 28.782C20.7593 29.4353 22.5068 29.5234 24.1339 29.0314C25.761 28.5395 27.1668 27.4978 28.1112 26.0845C29.0557 24.6711 29.4801 22.9737 29.3121 21.2822C29.1441 19.5907 28.394 18.0099 27.19 16.81C26.4225 16.043 25.4944 15.4556 24.4727 15.0903C23.4509 14.725 22.3609 14.5907 21.281 14.6972C20.2011 14.8037 19.1583 15.1484 18.2276 15.7063C17.2969 16.2642 16.5015 17.0215 15.8986 17.9237C15.2957 18.8259 14.9004 19.8506 14.741 20.9239C14.5817 21.9973 14.6623 23.0926 14.9771 24.131C15.2919 25.1695 15.833 26.1252 16.5614 26.9294C17.2899 27.7337 18.1876 28.3664 19.19 28.782ZM14.004 14.004C15.054 12.954 16.3006 12.121 17.6726 11.5527C19.0446 10.9844 20.515 10.6919 22 10.6919C23.485 10.6919 24.9554 10.9844 26.3274 11.5527C27.6994 12.121 28.9459 12.954 29.996 14.004C31.046 15.054 31.879 16.3006 32.4473 17.6726C33.0156 19.0446 33.3081 20.515 33.3081 22C33.3081 23.485 33.0156 24.9554 32.4473 26.3274C31.879 27.6994 31.046 28.946 29.996 29.996C27.8753 32.1167 24.9991 33.3081 22 33.3081C19.0009 33.3081 16.1247 32.1167 14.004 29.996C11.8833 27.8753 10.6919 24.9991 10.6919 22C10.6919 19.0009 11.8833 16.1247 14.004 14.004V14.004ZM35.816 12.376C36.0762 12.1305 36.2845 11.8354 36.4286 11.5079C36.5727 11.1805 36.6496 10.8275 36.6548 10.4699C36.66 10.1122 36.5934 9.7571 36.459 9.42562C36.3245 9.09415 36.1249 8.79302 35.8719 8.54008C35.619 8.28714 35.3179 8.08751 34.9864 7.95304C34.6549 7.81856 34.2998 7.75195 33.9421 7.75717C33.5845 7.76238 33.2315 7.83931 32.9041 7.98339C32.5766 8.12748 32.2815 8.33579 32.036 8.596C31.5586 9.10206 31.2973 9.77424 31.3074 10.4699C31.3175 11.1655 31.5984 11.8298 32.0903 12.3217C32.5822 12.8136 33.2465 13.0945 33.9421 13.1046C34.6378 13.1147 35.3099 12.8534 35.816 12.376V12.376Z" fill="#030303"/>
</svg>

<svg width="44" height="44" fill="none" xmlns="http://www.w3.org/2000/svg"><path fill-rule="evenodd" clip-rule="evenodd" d="M12.93.132C15.276.024 16.024 0 22 0c5.976 0 6.724.026 9.068.132 2.344.106 3.944.48 5.344 1.022a10.824 10.824 0 013.896 2.54 10.746 10.746 0 012.536 3.894c.544 1.4.916 3 1.024 5.34.108 2.35.132 3.098.132 9.072 0 5.976-.026 6.724-.132 9.07-.106 2.34-.48 3.94-1.024 5.34a10.791 10.791 0 01-2.536 3.898 10.787 10.787 0 01-3.896 2.536c-1.4.544-3 .916-5.34 1.024-2.348.108-3.096.132-9.072.132-5.976 0-6.724-.026-9.07-.132-2.34-.106-3.94-.48-5.34-1.024a10.794 10.794 0 01-3.898-2.536 10.784 10.784 0 01-2.538-3.896c-.542-1.4-.914-3-1.022-5.34C.024 28.722 0 27.974 0 22c0-5.976.026-6.724.132-9.068.106-2.344.48-3.944 1.022-5.344a10.792 10.792 0 012.54-3.896 10.784 10.784 0 013.894-2.538c1.4-.542 3-.914 5.34-1.022h.002zm17.96 3.96c-2.32-.106-3.016-.128-8.89-.128-5.874 0-6.57.022-8.89.128-2.146.098-3.31.456-4.086.758-1.026.4-1.76.874-2.53 1.644a6.824 6.824 0 00-1.644 2.53c-.302.776-.66 1.94-.758 4.086-.106 2.32-.128 3.016-.128 8.89 0 5.874.022 6.57.128 8.89.098 2.146.456 3.31.758 4.086a6.83 6.83 0 001.644 2.53 6.83 6.83 0 002.53 1.644c.776.302 1.94.66 4.086.758 2.32.106 3.014.128 8.89.128 5.876 0 6.57-.022 8.89-.128 2.146-.098 3.31-.456 4.086-.758 1.026-.4 1.76-.874 2.53-1.644a6.83 6.83 0 001.644-2.53c.302-.776.66-1.94.758-4.086.106-2.32.128-3.016.128-8.89 0-5.874-.022-6.57-.128-8.89-.098-2.146-.456-3.31-.758-4.086-.4-1.026-.874-1.76-1.644-2.53a6.826 6.826 0 00-2.53-1.644c-.776-.302-1.94-.66-4.086-.758zm-11.7 24.69a7.338 7.338 0 008-11.972 7.34 7.34 0 10-8 11.972zm-5.186-14.778a11.308 11.308 0 1115.992 15.992 11.308 11.308 0 01-15.992-15.992zm21.812-1.628a2.674 2.674 0 10-3.67-3.89 2.674 2.674 0 003.67 3.89z" fill="#030303"/></svg>
